assets/img/braze_icons/skip-forward.svg

<svg fill="none" height="24" viewBox="0 0 24 24" width="24" xmlns="http://www.w3.org/2000/svg"><g clip-rule="evenodd" fill="#801ed7" fill-rule="evenodd"><path d="m19 4c-.5523 0-1 .44772-1 1v14c0 .5523.4477 1 1 1s1-.4477 1-1v-14c0-.55228-.4477-1-1-1z"/><path d="m6.00216 4.08063c-.60908-.00066-1.18527.27627-1.56524.75229-.30227.37868-.37478.83423-.40551 1.1725-.03146.34637-.03144.78443-.03141 1.27911v9.43097c-.00003.4947-.00005.9327.03141 1.2791.03073.3383.10324.7938.40551 1.1725.37997.476.95616.7529 1.56524.7523.48453-.0005.88555-.2285 1.16889-.4158.29012-.1918.63218-.4655 1.01845-.7746l5.9019-4.7215c.2423-.1938.4724-.3778.6502-.5477.1907-.1821.4053-.424.5305-.7582.1695-.4524.1695-.9508 0-1.4032-.1252-.3342-.3398-.5761-.5305-.7582-.1778-.1699-.4078-.3539-.6501-.54766-.0095-.00758-.019-.01518-.0285-.0228l-5.87351-4.69878c-.38627-.30905-.72832-.58272-1.01844-.77453-.28334-.18732-.68436-.41528-1.16889-.4158z"/></g></svg>

<svg width="24" height="24" viewBox="0 0 24 24" fill="none" xmlns="http://www.w3.org/2000/svg">
<path fill-rule="evenodd" clip-rule="evenodd" d="M19 4C18.4477 4 18 4.44772 18 5V19C18 19.5523 18.4477 20 19 20C19.5523 20 20 19.5523 20 19V5C20 4.44772 19.5523 4 19 4Z" fill="#801ED7"/>
<path fill-rule="evenodd" clip-rule="evenodd" d="M6.00216 4.08063C5.39308 4.07997 4.81689 4.3569 4.43692 4.83292C4.13465 5.2116 4.06214 5.66715 4.03141 6.00542C3.99995 6.35179 3.99997 6.78985 4 7.28453V16.7155C3.99997 17.2102 3.99995 17.6482 4.03141 17.9946C4.06214 18.3329 4.13465 18.7884 4.43692 19.1671C4.81689 19.6431 5.39308 19.92 6.00216 19.9194C6.48669 19.9189 6.88771 19.6909 7.17105 19.5036C7.46117 19.3118 7.80323 19.0381 8.1895 18.729L14.0914 14.0075C14.3337 13.8137 14.5638 13.6297 14.7416 13.4598C14.9323 13.2777 15.1469 13.0358 15.2721 12.7016C15.4416 12.2492 15.4416 11.7508 15.2721 11.2984C15.1469 10.9642 14.9323 10.7223 14.7416 10.5402C14.5638 10.3703 14.3338 10.1863 14.0915 9.99254C14.082 9.98496 14.0725 9.97736 14.063 9.96974L8.18949 5.27096C7.80322 4.96191 7.46117 4.68824 7.17105 4.49643C6.88771 4.30911 6.48669 4.08115 6.00216 4.08063Z" fill="#801ED7"/>
</svg>
